!!!COM: Bach, Johann Sebastian
!!!CDT: 1685/3//-1750/7/28/
!!!OTL@@DE: Nun danket alle Gott
!!!OTL@EN:  From the depths of my heart
!!!AGN: 4-Part Chorale
!!!SCT: BH 032
!!!SCT: BWV 386
**harm	**root	**kern	**kern	**kern	**kern
!	!	!bass	!tenor	!alto	!soprno
*	*Iorgan	*Iorgan	*Iorgan	*Iorgan	*Iorgan
*M4/4	*M4/4	*M4/4	*M4/4	*M4/4	*M4/4
*met(c)	*met(c)	*met(c)	*met(c)	*met(c)	*met(c)
*MM60	*MM60	*MM60	*MM60	*MM60	*MM60
*k[b-]	*k[b-]	*k[b-]	*k[b-]	*k[b-]	*k[b-]
*F:	*F:	*F:	*F:	*F:	*F:
*>[A,A,B]	*>[A,A,B]	*>[A,A,B]	*>[A,A,B]	*>[A,A,B]	*>[A,A,B]
*>A	*>A	*>A	*>A	*>A	*>A
I	4AA	4FF	4A	4f	4cc
=1	=1	=1	=1	=1	=1
I	4AA	8F	4A	4f	4cc
.	.	8G	.	.	.
Ib	4AA	8A	4A	4f	4cc
.	.	8F	.	.	.
IV	4DD	8BB-	4B-	4f	4dd
.	.	8C	.	.	.
IVb	4DD	8D	4B-	4f	4dd
.	.	8BB-	.	.	.
=2	=2	=2	=2	=2	=2
I;	2AA;	2F;	2A;	2f;	2cc;
r	4r	4r	4r	4r	4r
vib	4FF#	4F	4d	4f	4a
=3	=3	=3	=3	=3	=3
V7b	4EE	4E	4c	4g	4b-
I	4AA	4F	4c	4f	4a
V7	4EE	8C	4c	4e	4g
.	.	8BB-	.	.	.
Ib	4AA	8AA	4c	4f	8.a
.	.	8FF	.	.	.
.	.	.	.	.	16b-
=4	=4	=4	=4	=4	=4
V7	2EE	2C	8c	8f	2g
.	.	.	16B-	8d	.
.	.	.	16A	.	.
.	.	.	4B-	4e	.
I;	4AA;	4FF;	4A;	4c;	4f;
=:|!	=:|!	=:|!	=:|!	=:|!	=:|!
*>B	*>B	*>B	*>B	*>B	*>B
V	4EE	4C	8G	8e	4g
.	.	.	8F	8d	.
=5	=5	=5	=5	=5	=5
V	4EE	8C	8E	4c	4g
.	.	8D	8F	.	.
Vb	4EE	8E	4G	4c	4g
.	.	8C	.	.	.
I	4AA	8FF	8G	4c	4a
.	.	8GG	16F	.	.
.	.	.	16E	.	.
Ib	4AA	8AA	4F	4c	4a
.	.	8FF	.	.	.
!!linebreak: 2
=6	=6	=6	=6	=6	=6
V;	2EE;	2CC;	2E;	2c;	2g;
r	4r	4r	4r	4r	4r
V	4EE	4C	4c	4e	4g
=7	=7	=7	=7	=7	=7
I	4AA	8F	4c	4f	8a
.	.	8G	.	.	8b
iii	4CC#	8A	4c	4e	4cc
.	.	8E	.	.	.
vi7b	4FF#	8F	4A	4d	4cc
.	.	8D	.	.	.
V/V	4BB	8G	4G	4d	4b
.	.	8GG	.	.	.
=8	=8	=8	=8	=8	=8
V;	2EE;	2C;	2G;	2e;	2cc;
r	4r	4r	4r	4r	4r
I	4AA	4FF	4A	4f	4cc
=9	=9	=9	=9	=9	=9
IV	4DD	8BB-	4B-	8f	4dd
.	.	8AA	.	8g	.
vii/ii	4AA#	8GG	4A	4a	4cc
.	.	8FF#	.	.	.
ii	4BB	8GG	4d	8a	4b-
.	.	8BB-	.	4g	.
iiio7b	8CC#	8C	8e-	.	4a
V/ii	8FF#	8D	8d	8f#	.
=10	=10	=10	=10	=10	=10
ii;	2BB;	2GG;	2d;	2g;	2b-;
r	4r	4r	4r	4r	4r
Ib	4AA	8AA	4c	4f	4a
.	.	8BB-	.	.	.
=11	=11	=11	=11	=11	=11
V	4EE	4C	4c	4e	4g
I	8AA	8F	8c	4f	8.a
vi	8FF#	8D	8d	.	.
.	.	.	.	.	16b-
ii7b	4BB	8BB-	8d	4f	4.g
.	.	8GG	8B-	.	.
V	4EE	8C	8.G	4e	.
.	.	8CC	.	.	8f
.	.	.	16c	.	.
=12	=12	=12	=12	=12	=12
I;	2.AA;	2.FF;	2.A;	2.c;	2.f;
==	==	==	==	==	==
*-	*-	*-	*-	*-	*-
!!chor2scor: -l 2 -s 0.6 -o %b.pmx
!!!YEC: Copyright 1994, David Huron
!!!YEC: Changes/Additions 2001 by Craig Stuart Sapp
!!!YEN: United States of America
!!!SMA: 371 Bach Chorales, edited by Ludwig Erk, C.F. Peters
!!!PDT: 1850, 1865
!!!ONB: Harmony and Root analysis done manually
